!!!COM: Corelli, Arcangelo
!!!OPR: Sonata da chiesa
!!!OPS: 3
!!!ONM: 8
!!!OMV: 4
!!!OMD: Allegro
**kern	**fb	**kern	**kern	**kern
*part4	*part4	*part3	*part2	*part1
*staff4	*	*staff3	*staff2	*staff1
*I"Organo	*	*I"Violone	*I"Violino II	*I"Violino I
*clefF4	*	*clefF4	*clefG2	*clefG2
*k[]	*	*k[]	*k[]	*k[]
*M4/4	*	*M4/4	*M4/4	*M4/4
*met(c)	*	*met(c)	*met(c)	*met(c)
=1	=1	=1	=1	=1
4C	.	4C	4ee	8r
.	.	.	.	8eeL
8r	.	8r	8r	8gg
8c	.	8c	8cc	8eeJ
8BL	6	8BL	16ggLL	8r
.	.	.	16ff	.
8BBJ	.	8BBJ	16gg	8ddL
.	.	.	16aaJJ	.
8r	.	8r	16ggLL	8gg
.	.	.	16aa	.
8B	.	8B	16gg	8ddJ
.	.	.	16aaJJ	.
=2	=2	=2	=2	=2
8AL	6	8AL	16ffLL	8r
.	.	.	16ee	.
8AAJ	.	8AAJ	16ff	8ccL
.	.	.	16ggJJ	.
8r	.	8r	16ffLL	8ff
.	.	.	16aa	.
8A	.	8A	16gg	8ccJ
.	.	.	16ffJJ	.
8GL	6	8GL	16eeLL	8r
.	.	.	16dd	.
8GGJ	.	8GGJ	16ee	8bL
.	.	.	16ffJJ	.
8r	.	8r	16eeLL	8ee
.	.	.	16gg	.
8G	.	8G	16ff	8bJ
.	.	.	16eeJJ	.
=3	=3	=3	=3	=3
8FL	6	8FL	16ddLL	8r
.	.	.	16cc	.
8FFJ	.	8FFJ	16dd	8aL
.	.	.	16eeJJ	.
8r	.	8r	16ddLL	8dd
.	.	.	16ff	.
8F	.	8F	16ee	8aJ
.	.	.	16ddJJ	.
8EL	6	8EL	16ccLL	8r
.	.	.	16b	.
8EEJ	.	8EEJ	16cc	8gL
.	.	.	16ddJJ	.
8r	.	8r	16ccLL	8cc
.	.	.	16ee	.
8E	.	8E	16dd	8ggJ
.	.	.	16eeJJ	.
=4	=4	=4	=4	=4
8FL	.	8FL	8aL	8aaL
8G	.	8G	8bJ	8gg
8A	6	8A	4cc	8ff
8EJ	6	8EJ	.	8eeJ
8FL	6 5	8FL	4.ccT	2dd
8D	.	8D	.	.
8G	3	8G	.	.
8GGJ	.	8GGJ	8b	.
=5	=5	=5	=5	=5
4C	.	8CL	8ccL	4cc
.	.	8c	8ee	.
8r	.	8e	8gg	8r
8C	.	8CJ	8eeJ	8ee
4BB	6	8BBL	8r	16ggLL
.	.	.	.	16ff
.	.	8B	8ddL	16gg
.	.	.	.	16aaJJ
8r	.	8d	8b	16ggLL
.	.	.	.	16aa
8BB	.	8BBJ	8ddJ	16gg
.	.	.	.	16aaJJ
=6	=6	=6	=6	=6
4AA	6	8AAL	8r	16ffLL
.	.	.	.	16ee
.	.	8A	8ccL	16ff
.	.	.	.	16ggJJ
8r	.	8c	8a	16ffLL
.	.	.	.	16aa
8AA	.	8AAJ	8ccJ	16gg
.	.	.	.	16ffJJ
4GG	6	8GGL	8r	16eeLL
.	.	.	.	16dd
.	.	8G	8bL	16ee
.	.	.	.	16ffJJ
8r	.	8B	8g	16eeLL
.	.	.	.	16gg
8GG	.	8GGJ	8bJ	16ff
.	.	.	.	16eeJJ
=7	=7	=7	=7	=7
4FF	6	8FFL	8r	16ddLL
.	.	.	.	16ee
.	.	8F	8aL	16ff
.	.	.	.	16eeJJ
8r	.	8A	8f	16ddLL
.	.	.	.	16cc
8FF	.	8FFJ	8ddJ	16b
.	.	.	.	16aJJ
8EEL	7 #	8EEL	8r	16g#XLL
.	.	.	.	16ee
8E	.	8E	8eeL	16ff#X
.	.	.	.	16gg#XJJ
8F	5	8F	8cc	16aaLL
.	.	.	.	16cc
8CJ	6	8CJ	8aJ	16dd
.	.	.	.	16eeJJ
=8	=8	=8	=8	=8
8DL	6 5	8DL	4.a	16ffniLL
.	.	.	.	16ee
8BB	.	8BB	.	16dd
.	.	.	.	16ccJJ
8E	5 4	8E	.	4b
8EEJ	#	8EEJ	8g#X	.
4AA	.	4AA	4a	8aL
.	.	.	.	8ff
8r	.	8r	8r	8aa
8A	6	8A	8cc	8ffJ
=9	=9	=9	=9	=9
8GL	6	8GL	16bLL	8r
.	.	.	16a	.
8GGJ	.	8GGJ	16b	8eeL
.	.	.	16ccJJ	.
8r	.	8r	16bLL	8gg
.	.	.	16dd	.
8G	.	8G	16cc	8eeJ
.	.	.	16bJJ	.
8FL	6	8FL	16aLL	8r
.	.	.	16gni	.
8FFJ	.	8FFJ	16a	8ddL
.	.	.	16bJJ	.
8r	.	8r	16aLL	8ff
.	.	.	16cc	.
8F	.	8F	16b	8ddJ
.	.	.	16aJJ	.
=10	=10	=10	=10	=10
8EL	6	8EL	16gLL	8r
.	.	.	16f	.
8EEJ	.	8EEJ	16g	8ccL
.	.	.	16aJJ	.
8r	.	8r	16gLL	8ee
.	.	.	16gg	.
8E	.	8E	16ff	8ccJ
.	.	.	16ggJJ	.
8FL	.	8FL	16aaLL	8aL
.	.	.	16bb	.
8G	.	8G	16gg	8b
.	.	.	16aaJJ	.
8A	6	8A	16ffLL	8cc
.	.	.	16gg	.
8EJ	6	8EJ	16ee	8ccJ
.	.	.	16ffJJ	.
=11	=11	=11	=11	=11
8FL	6 5	8FL	16ddLL	4.ccT
.	.	.	16gg	.
8D	.	8D	16ff	.
.	.	.	16eeJJ	.
8G	3	8G	4dd	.
8GGJ	.	8GGJ	.	8b
4C	.	8CL	8ccL	4cc
.	.	8c	8ee	.
8r	.	8e	8gg	8r
8C	.	8CJ	8eeJ	8ee
=12	=12	=12	=12	=12
4BB	6	8BBL	8r	16ggLL
.	.	.	.	16ff
.	.	8B	8ddL	16gg
.	.	.	.	16aaJJ
8r	.	8d	8b	16ggLL
.	.	.	.	16aa
8BB	.	8BBJ	8ddJ	16gg
.	.	.	.	16aaJJ
4AA	6	8AAL	8r	16ffLL
.	.	.	.	16ee
.	.	8A	8ccL	16ff
.	.	.	.	16ggJJ
8r	.	8c	8a	16ffLL
.	.	.	.	16aa
8AA	.	8AAJ	8ccJ	16gg
.	.	.	.	16ffJJ
=13	=13	=13	=13	=13
4GG	6	8GGL	8r	16eeLL
.	.	.	.	16dd
.	.	8G	8bL	16ee
.	.	.	.	16ffJJ
8r	.	8B	8g	16eeLL
.	.	.	.	16ff
8G	.	8GJ	8bJ	16gg
.	.	.	.	16eeJJ
8FL	.	8FL	8aL	16aaLL
.	.	.	.	16bb
8G	.	8G	8b	16gg
.	.	.	.	16aaJJ
8A	6	8A	8cc	16ffLL
.	.	.	.	16gg
8EJ	6	8EJ	8ccJ	16ee
.	.	.	.	16ffJJ
=14	=14	=14	=14	=14
8FL	6 5	8FL	4.cc	16ddLL
.	.	.	.	16gg
8D	.	8D	.	16ff
.	.	.	.	16eeJJ
8G	5 4	8G	.	4dd
8GGJ	3	8GGJ	8b	.
4C	.	4C	16ccLL	16eeLL
.	.	.	16b	16dd
.	.	.	16cc	16ee
.	.	.	16ddJJ	16ffJJ
4r	.	4r	16ccLL	16eeLL
.	.	.	16dd	16ff
.	.	.	16cc	16ee
.	.	.	16ddJJ	16ffJJ
=15	=15	=15	=15	=15
8cL	.	8cL	4ee	4gg
8C	.	8C	.	.
8G	.	8G	4r	4r
8GGJ	.	8GGJ	.	.
4C	.	4C	16eeLL	16ggLL
.	.	.	16dd	16ff
.	.	.	16ee	16gg
.	.	.	16ffJJ	16aaJJ
4r	.	4r	16eeLL	16ggLL
.	.	.	16ff	16aa
.	.	.	16ee	16gg
.	.	.	16ddJJ	16ffJJ
=16	=16	=16	=16	=16
8AL	.	8AL	4cc	4ee
8AA	.	8AA	.	.
8E	#	8E	4r	4r
8EEJ	.	8EEJ	.	.
4AA	.	4AA	16ccLL	16eeLL
.	.	.	16b	16dd
.	.	.	16cc	16ee
.	.	.	16ddJJ	16ffJJ
4r	.	4r	16ccLL	16eeLL
.	.	.	16dd	16ff
.	.	.	16cc	16ee
.	.	.	16bJJ	16ddJJ
=17	=17	=17	=17	=17
8fL	.	8fL	4a	4cc
8F	.	8F	.	.
8c	.	8c	4r	4r
8CJ	.	8CJ	.	.
4F	.	4F	16aaLL	16cccLL
.	.	.	16gg	16bb-X
.	.	.	16aa	16ccc
.	.	.	16bb-XJJ	16dddJJ
4r	.	4r	16aaLL	16cccLL
.	.	.	16bb-	16ddd
.	.	.	16aa	16ccc
.	.	.	16ggJJ	16bb-JJ
=18	=18	=18	=18	=18
8dL	.	8dL	4ff	4aa
8D	.	8D	.	.
8A	#	8A	4r	4r
8AAJ	.	8AAJ	.	.
4D	.	4D	16ffLL	16aaLL
.	.	.	16gg	16bb-X
.	.	.	16ff	16aa
.	.	.	16eeJJ	16ggJJ
4r	.	4r	16ddLL	16ffLL
.	.	.	16ee	16gg
.	.	.	16dd	16ff
.	.	.	16ccJJ	16eeJJ
=19	=19	=19	=19	=19
8GL	.	8GL	8bL	4.dd
8GG	.	8GG	8gJ	.
8BB	6	8BB	2gg	.
8GGJ	.	8GGJ	.	8bni
8AAL	7	8AAL	.	8ccL
8A	.	8A	.	8eeJ
8c	6 #4|	8c	8ff#XL	[4aa
8AJ	.	8AJ	8eeJ	.
=20	=20	=20	=20	=20
4.B	7 #	4.B	8dd#XL	8aaL]
.	.	.	8bJ	8bb
.	6	.	2bb	8gg
8B	#5\	8B	.	8ff#XJ
8cL	7_	8cL	.	8eeL
8B	.	8B	.	8gg
8c	6_	8c	[4aa	8ff#
8AJ	.	8AJ	.	8eeJ
=21	=21	=21	=21	=21
8BL	7_ #_	8BL	4aa]	8dd#XL
8B	.	8B	.	8bJ
8c	5_	8c	4gg	2ee
8GJ	.	8GJ	.	.
8AL	#6\_ 5_	8AL	2ff#X	.
8F#X	.	8F#X	.	.
8B	#_	8B	.	4dd#
8BBJ	.	8BBJ	.	.
=22	=22	=22	=22	=22
8EL	.	8EL	2ee	[1ee
8e	.	8e	.	.
8d#X	6	8d#X	.	.
8BJ	.	8BJ	.	.
8eL	.	8eL	2r	.
8e	.	8e	.	.
8dn	6	8dn	.	.
8BJ	.	8BJ	.	.
=23	=23	=23	=23	=23
8cL	6	8cL	1ee	1ee]
8c	.	8c	.	.
8B	6 4	8B	.	.
8GJ	.	8GJ	.	.
8AL	5	8AL	.	.
8G	.	8G	.	.
8F#X	.	8F#X	.	.
8EJ	.	8EJ	.	.
=24	=24	=24	=24	=24
4B	#	4B	4dd#X	4ff#X
4E	.	4E	4ee	4gg
2BB	5 4	2BB	4.ee	2ff#
.	#	.	8dd#	.
=25	=25	=25	=25	=25
2EE	.	2EE	2ee	2ee
4C	.	4C	4gg	8r
.	.	.	.	8eeL
8r	.	8r	8r	8gg
8c	.	8c	8cc	8eeJ
=26	=26	=26	=26	=26
8BL	6	8BL	16ggLL	8r
.	.	.	16ff	.
8BBJ	.	8BBJ	16gg	8ddL
.	.	.	16aaJJ	.
8r	.	8r	16ggLL	8gg
.	.	.	16aa	.
8B	.	8B	16gg	8ddJ
.	.	.	16aaJJ	.
8AL	6	8AL	16ffLL	8r
.	.	.	16ee	.
8AAJ	.	8AAJ	16ff	8ccL
.	.	.	16ggJJ	.
8r	.	8r	16ffLL	8ff
.	.	.	16aa	.
8A	.	8A	16gg	8ccJ
.	.	.	16ffJJ	.
=27	=27	=27	=27	=27
8GL	6	8GL	16eeLL	8r
.	.	.	16dd	.
8GGJ	.	8GGJ	16ee	8bL
.	.	.	16ffJJ	.
8r	.	8r	16eeLL	8ee
.	.	.	16gg	.
8G	.	8G	16ff	8bJ
.	.	.	16eeJJ	.
8FL	6	8FL	16ddLL	8r
.	.	.	16cc	.
8FFJ	.	8FFJ	16dd	8aL
.	.	.	16eeJJ	.
8r	.	8r	16ddLL	8dd
.	.	.	16ff	.
8F	.	8F	16ee	8aJ
.	.	.	16ddJJ	.
=28	=28	=28	=28	=28
8EL	6	8EL	16ccLL	8r
.	.	.	16b	.
8EEJ	.	8EEJ	16cc	8gL
.	.	.	16ddJJ	.
8r	.	8r	16ccLL	8cc
.	.	.	16ee	.
8E	.	8E	16dd	8ggJ
.	.	.	16eeJJ	.
8FL	.	8FL	8aL	8aaL
8G	.	8G	8bJ	8gg
8A	6	8A	4cc	8ff
8EJ	6	8EJ	.	8eeJ
=29	=29	=29	=29	=29
8FL	6 5	8FL	4.cc	2dd
8D	.	8D	.	.
8G	4	8G	.	.
8GGJ	3	8GGJ	8b	.
4C	.	8CL	8ccL	4cc
.	.	8c	8ee	.
8r	.	8e	8gg	8r
8C	.	8CJ	8eeJ	8ee
=30	=30	=30	=30	=30
4BB	6	8BBL	8r	16ggLL
.	.	.	.	16ff
.	.	8B	8ddL	16gg
.	.	.	.	16aaJJ
8r	.	8d	8b	16ggLL
.	.	.	.	16aa
8BB	.	8BBJ	8ddJ	16gg
.	.	.	.	16aaJJ
4AA	6	8AAL	8r	16ffLL
.	.	.	.	16ee
.	.	8A	8ccL	16ff
.	.	.	.	16ggJJ
8r	.	8c	8a	16ffLL
.	.	.	.	16aa
8AA	.	8AAJ	8ccJ	16gg
.	.	.	.	16ffJJ
=31	=31	=31	=31	=31
4GG	6	8GGL	8r	16eeLL
.	.	.	.	16dd
.	.	8G	8bL	16ee
.	.	.	.	16ffJJ
8r	.	8B	8g	16eeLL
.	.	.	.	16gg
8GG	.	8GGJ	8bJ	16ff
.	.	.	.	16eeJJ
4FF	6	8FFL	8r	16ddLL
.	.	.	.	16ee
.	.	8F	8aL	16ff
.	.	.	.	16eeJJ
8r	.	8A	8f	16ddLL
.	.	.	.	16cc
8FF	.	8FFJ	8ddJ	16b
.	.	.	.	16aJJ
=32	=32	=32	=32	=32
8EEL	#	8EEL	8r	16g#XLL
.	.	.	.	16ee
8E	.	8E	8eeL	16ff#X
.	.	.	.	16gg#XJJ
8F	.	8F	8cc	16aaLL
.	.	.	.	16cc
8CJ	6	8CJ	8aJ	16dd
.	.	.	.	16eeJJ
8DL	6 5	8DL	4.a	16ffnLL
.	.	.	.	16ee
8BB	.	8BB	.	16dd
.	.	.	.	16ccJJ
8E	5 4	8E	.	4b
8EEJ	#	8EEJ	8g#X	.
=33	=33	=33	=33	=33
4AA	.	4AA	4a	8aL
.	.	.	.	8ff
8r	.	8r	8r	8aa
8A	6	8A	8cc	8ffJ
8GL	6	8GL	16bLL	8r
.	.	.	16a	.
8GGJ	.	8GGJ	16b	8eeL
.	.	.	16ccJJ	.
8r	.	8r	16bLL	8ggni
.	.	.	16dd	.
8G	.	8G	16cc	8eeJ
.	.	.	16bJJ	.
=34	=34	=34	=34	=34
8FL	6	8FL	16aLL	8r
.	.	.	16g	.
8FFJ	.	8FFJ	16a	8ddL
.	.	.	16bJJ	.
8r	.	8r	16aLL	8ff
.	.	.	16cc	.
8F	.	8F	16b	8ddJ
.	.	.	16aJJ	.
8EL	6	8EL	16gLL	8r
.	.	.	16f	.
8EEJ	.	8EEJ	16g	8ccL
.	.	.	16aJJ	.
8r	.	8r	16gLL	8ee
.	.	.	16gg	.
8E	.	8E	16ff	8ccJ
.	.	.	16ggJJ	.
=35	=35	=35	=35	=35
8FL	.	8FL	16aaLL	8aL
.	.	.	16bb	.
8G	.	8G	16gg	8b
.	.	.	16aaJJ	.
8A	6	8A	16ffLL	8cc
.	.	.	16gg	.
8EJ	6	8EJ	16ee	8ccJ
.	.	.	16ffJJ	.
8FL	6 5	8FL	16ddLL	4.cc
.	.	.	16gg	.
8D	.	8D	16ff	.
.	.	.	16eeJJ	.
8G	5 4	8G	4dd	.
8GGJ	3	8GGJ	.	8b
=36	=36	=36	=36	=36
4C	.	8CL	8ccL	4cc
.	.	8c	8ee	.
8r	.	8e	8gg	8r
8C	.	8CJ	8eeJ	8ee
4BB	6	8BBL	8r	16ggLL
.	.	.	.	16ff
.	.	8B	8ddL	16gg
.	.	.	.	16aaJJ
8r	.	8d	8b	16ggLL
.	.	.	.	16aa
8BB	.	8BBJ	8ddJ	16gg
.	.	.	.	16aaJJ
=37	=37	=37	=37	=37
4AA	6	8AAL	8r	16ffLL
.	.	.	.	16ee
.	.	8A	8ccL	16ff
.	.	.	.	16ggJJ
8r	.	8c	8a	16ffLL
.	.	.	.	16aa
8AA	.	8AAJ	8ccJ	16gg
.	.	.	.	16ffJJ
4GG	6	8GGL	8r	16eeLL
.	.	.	.	16dd
.	.	8G	8bL	16ee
.	.	.	.	16ffJJ
8r	.	8B	8g	16eeLL
.	.	.	.	16ff
8G	.	8GJ	8bJ	16gg
.	.	.	.	16eeJJ
=38	=38	=38	=38	=38
8FL	.	8FL	8aL	16aaLL
.	.	.	.	16bb
8G	.	8G	8b	16gg
.	.	.	.	16aaJJ
8A	6	8A	8cc	16ffLL
.	.	.	.	16gg
8EJ	6	8EJ	8ccJ	16ee
.	.	.	.	16ffJJ
8FL	6 5	8FL	4.ccT	16ddLL
.	.	.	.	16gg
8D	.	8D	.	16ff
.	.	.	.	16eeJJ
8G	5 4	8G	.	4dd
8GGJ	3	8GGJ	8b	.
=39	=39	=39	=39	=39
8CL	.	8CL	4cc	4cc
8D	.	8D	.	.
8E	6	8E	8r	8r
8CJ	.	8CJ	8ee	8gg
8FL	.	8FL	8aL	8aaL
8G	.	8G	8bJ	8gg
8A	6	8A	4cc	8ff
8EJ	6	8EJ	.	8eeJ
=40	=40	=40	=40	=40
8FL	6 5	8FL	4.ccT	2dd
8D	.	8D	.	.
8G	5 4	8G	.	.
8GGJ	3	8GGJ	8b	.
2C	.	2C	2cc	2cc
=:|!	=:|!	=:|!	=:|!	=:|!
*-	*-	*-	*-	*-
!!!system-decoration: [{s1,s2},s3,s4]
!!!YEM: CC BY-NC-SA 4.0; CCARH; DCML
!!!RDF**kern: i = editorial accidental